Newaita/actions/16/mail-message-new-list.svg

<?xml version="1.0" encoding="UTF-8"?>
<svg xmlns="http://www.w3.org/2000/svg" xmlns:xlink="http://www.w3.org/1999/xlink" width="16pt" height="16pt" viewBox="0 0 16 16" version="1.1">
<g id="surface1">
<path style=" stroke:none;fill-rule:nonzero;fill:rgb(25.882354%,25.882354%,25.882354%);fill-opacity:1;" d="M 1.984375 2.109375 C 1.25 2.109375 0.660156 2.699219 0.660156 3.433594 L 0.660156 13.023438 C 0.660156 13.757812 1.25 14.347656 1.984375 14.347656 L 9.59375 14.347656 L 9.59375 13.355469 L 2.316406 13.355469 C 1.949219 13.355469 1.652344 13.058594 1.652344 12.695312 L 1.652344 3.867188 L 7.558594 9.152344 C 7.773438 9.34375 8.101562 9.34375 8.320312 9.152344 L 14.222656 3.867188 L 14.222656 8.726562 L 15.214844 8.726562 L 15.214844 3.433594 C 15.214844 2.699219 14.625 2.109375 13.890625 2.109375 Z M 2.511719 3.101562 L 13.367188 3.101562 L 7.9375 7.957031 Z M 2.511719 3.101562 "/>
<path style=" stroke:none;fill-rule:nonzero;fill:rgb(30.19608%,71.372551%,67.450982%);fill-opacity:1;" d="M 10.730469 13.355469 L 14.738281 13.355469 C 15 13.355469 15.214844 13.578125 15.214844 13.851562 C 15.214844 14.125 15 14.347656 14.738281 14.347656 L 10.730469 14.347656 C 10.46875 14.347656 10.253906 14.125 10.253906 13.851562 C 10.253906 13.578125 10.46875 13.355469 10.730469 13.355469 Z M 10.730469 13.355469 "/>
<path style=" stroke:none;fill-rule:nonzero;fill:rgb(30.19608%,71.372551%,67.450982%);fill-opacity:1;" d="M 10.730469 9.386719 L 14.738281 9.386719 C 15 9.386719 15.214844 9.609375 15.214844 9.882812 C 15.214844 10.15625 15 10.378906 14.738281 10.378906 L 10.730469 10.378906 C 10.46875 10.378906 10.253906 10.15625 10.253906 9.882812 C 10.253906 9.609375 10.46875 9.386719 10.730469 9.386719 Z M 10.730469 9.386719 "/>
<path style=" stroke:none;fill-rule:nonzero;fill:rgb(30.19608%,71.372551%,67.450982%);fill-opacity:1;" d="M 10.730469 11.371094 L 14.738281 11.371094 C 15 11.371094 15.214844 11.585938 15.214844 11.851562 L 15.214844 11.878906 C 15.214844 12.148438 15 12.363281 14.738281 12.363281 L 10.730469 12.363281 C 10.46875 12.363281 10.253906 12.148438 10.253906 11.878906 L 10.253906 11.851562 C 10.253906 11.585938 10.46875 11.371094 10.730469 11.371094 Z M 10.730469 11.371094 "/>
</g>
</svg>

<svg xmlns="http://www.w3.org/2000/svg" width="16pt" height="16pt" viewBox="0 0 16 16"><path d="M1.984 2.11A1.32 1.32 0 0 0 .66 3.433v9.59c0 .734.59 1.324 1.324 1.324h7.61v-.993H2.316a.663.663 0 0 1-.664-.66V3.867L7.56 9.152a.577.577 0 0 0 .761 0l5.903-5.285v4.86h.992V3.434a1.32 1.32 0 0 0-1.324-1.325zm.528.992h10.855l-5.43 4.855zm0 0" fill="#424242"/><path d="M10.73 13.355h4.008c.262 0 .477.223.477.497a.488.488 0 0 1-.477.496H10.73a.488.488 0 0 1-.476-.496c0-.274.215-.497.476-.497zm0 0M10.73 9.387h4.008c.262 0 .477.222.477.496a.488.488 0 0 1-.477.496H10.73a.488.488 0 0 1-.476-.496c0-.274.215-.496.476-.496zm0 0M10.73 11.371h4.008a.48.48 0 0 1 .477.48v.028a.48.48 0 0 1-.477.484H10.73a.48.48 0 0 1-.476-.484v-.027a.48.48 0 0 1 .476-.48zm0 0" fill="#4db6ac"/></svg>
